svgs/regular/window-frame.svg

<svg xmlns="http://www.w3.org/2000/svg" viewBox="0 0 512 512"><!--! Font Awesome Pro 6.0.0-alpha3 by @fontawesome - https://fontawesome.com License - https://fontawesome.com/license (Commercial License) --><path d="M488 464H480V32c0-17.6-14.4-32-32-32H64C46.4 0 32 14.4 32 32v432H23.1C10.75 464 0 474.7 0 487.1S10.75 512 23.1 512H488c13.25 0 24-10.75 24-23.1S501.3 464 488 464zM232 464H80v-192h152V464zM232 224H80V48h152V224zM432 464h-152v-192h152V464zM432 224h-152V48h152V224z"/></svg>

<svg xmlns="http://www.w3.org/2000/svg" viewBox="0 0 512 512"><path d="M496,464H480V32A32,32,0,0,0,448,0H64A32,32,0,0,0,32,32V464H16A16,16,0,0,0,0,480v16a16,16,0,0,0,16,16H496a16,16,0,0,0,16-16V480A16,16,0,0,0,496,464Zm-264,0H80V272H232Zm0-240H80V48H232ZM432,464H280V272H432Zm0-240H280V48H432Z"/></svg>
